X:17447
T:Thunderhead
M:6/8
L:1/8
C:Grey Larson
R:jig
D:North Cregg: And They Danced All Night
Z:Devin McCabe
K:BMin
~B3 fBB|eBB dBA|~B3 fgf|edB ABd|
!~B3 fBB|eBB def|gfe ~f3|edB ABd:|
!:afd edB|ABd c2c|Bcc Bcc|dcB ~c3|
!afd edB|ABd c2c|(3Bcd B c2a|1gec dfg:|2gec dc=c||
